X: 12834
T: Felton Lonnen
R: jig
M: 6/8
K: Amajor
eAA ecc|fBB Baf|eAA ecc|eAA ecc|
fdd ecc|fBB Baf|eAA ecc|eAA Aaf:|
e2d (f/g/a)f|g2B Bcd|e2e (f/g/a)f|ece ae=g|
fdf ece|f2(B Bc)d|e2e (f/g/a)f|e2A A2c/d/|
e2e (f/g/a)f|(=g2B) Bcd|e2e (f/g/a)f|ece ae=g|
fdf ece|f2B Bcd|e2d (f/g/a)f|e2A Aaf||
eAA ecc|eAA Aaf|eAA ecc|fBB Baf|
eAA ecc|eAA ecc|fdd ecc|fBB Baf:|
e2d (f/g/a)f|e2A Aaf|e2d (f/g/a)f|g2B Bcd|
e2e (f/g/a)f|ece ae=g|fdf ece|f2(B Bc)d|
e2e (f/g/a)f|e2A A2c/d/|e2e (f/g/a)f|(=g2B) Bcd|
e2e (f/g/a)f|ece ae=g|fdf ece|f2B Bcd||

